Images/Icon=Portfolio.svg

<svg width="52" height="52" viewBox="0 0 52 52" fill="none" xmlns="http://www.w3.org/2000/svg">
<g filter="url(#filter0_d_1_231)">
<circle cx="26" cy="25" r="23" fill="white"/>
</g>
<path d="M14.9674 10.1288V38.0897H18.7346V26.7978H24.1163L30.5744 38.0897H37.0324V10.6665H33.2652L33.8034 33.788L28.9599 25.1846C30.7682 23.6913 31.5162 23.0368 32.0772 20.6994C35.0718 8.22165 23.2869 9.16965 14.9674 10.1288Z" fill="#2F2F2F" stroke="#2F2F2F" stroke-width="0.579379"/>
<defs>
<filter id="filter0_d_1_231" x="0.682482" y="0.841241" width="50.635" height="50.635" filterUnits="userSpaceOnUse" color-interpolation-filters="sRGB">
<feFlood flood-opacity="0" result="BackgroundImageFix"/>
<feColorMatrix in="SourceAlpha" type="matrix" values="0 0 0 0 0 0 0 0 0 0 0 0 0 0 0 0 0 0 127 0" result="hardAlpha"/>
<feOffset dy="1.15876"/>
<feGaussianBlur stdDeviation="1.15876"/>
<feColorMatrix type="matrix" values="0 0 0 0 0 0 0 0 0 0 0 0 0 0 0 0 0 0 0.12 0"/>
<feBlend mode="normal" in2="BackgroundImageFix" result="effect1_dropShadow_1_231"/>
<feBlend mode="normal" in="SourceGraphic" in2="effect1_dropShadow_1_231" result="shape"/>
</filter>
</defs>
</svg>

<svg xmlns="http://www.w3.org/2000/svg" width="52" height="52" fill="none"><g filter="url(#a)"><circle cx="26" cy="25" r="23" fill="#fff"/></g><path fill="#2F2F2F" stroke="#2F2F2F" stroke-width=".579" d="M14.967 10.129v27.96h3.768V26.799h5.381l6.458 11.292h6.458V10.666h-3.767l.538 23.122-4.843-8.603c1.808-1.494 2.556-2.148 3.117-4.486 2.995-12.477-8.79-11.53-17.11-10.57Z"/><defs><filter id="a" width="50.635" height="50.635" x=".682" y=".841" color-interpolation-filters="sRGB" filterUnits="userSpaceOnUse"><feFlood flood-opacity="0" result="BackgroundImageFix"/><feColorMatrix in="SourceAlpha" result="hardAlpha" values="0 0 0 0 0 0 0 0 0 0 0 0 0 0 0 0 0 0 127 0"/><feOffset dy="1.159"/><feGaussianBlur stdDeviation="1.159"/><feColorMatrix values="0 0 0 0 0 0 0 0 0 0 0 0 0 0 0 0 0 0 0.12 0"/><feBlend in2="BackgroundImageFix" result="effect1_dropShadow_1_231"/><feBlend in="SourceGraphic" in2="effect1_dropShadow_1_231" result="shape"/></filter></defs></svg>
